assets/icons/24px/stroke/arrow-switch-24px.svg

<svg width="24" height="24" viewBox="0 0 24 24" fill="none" xmlns="http://www.w3.org/2000/svg">
<path fill-rule="evenodd" clip-rule="evenodd" d="M14.8415 2.24744C15.2571 1.88375 15.8889 1.92587 16.2526 2.34151L19.7526 6.34151C20.0825 6.71854 20.0825 7.2815 19.7526 7.65852L16.2526 11.6585C15.8889 12.0742 15.2571 12.1163 14.8415 11.7526C14.4259 11.3889 14.3837 10.7571 14.7474 10.3415L16.7962 8.00002H5C4.44772 8.00002 4 7.5523 4 7.00002C4 6.44773 4.44772 6.00002 5 6.00002H16.7962L14.7474 3.65852C14.3837 3.24288 14.4259 2.61112 14.8415 2.24744Z" fill="white"/>
<path fill-rule="evenodd" clip-rule="evenodd" d="M9.1585 12.2474C8.74287 11.8838 8.11111 11.9259 7.74742 12.3415L4.24742 16.3415C3.91752 16.7185 3.91752 17.2815 4.24742 17.6585L7.74742 21.6585C8.11111 22.0742 8.74287 22.1163 9.1585 21.7526C9.57414 21.3889 9.61626 20.7571 9.25258 20.3415L7.20377 18L19 18C19.5523 18 20 17.5523 20 17C20 16.4477 19.5523 16 19 16L7.20377 16L9.25258 13.6585C9.61626 13.2429 9.57414 12.6111 9.1585 12.2474Z" fill="white"/>
</svg>

<svg width="24" height="24" fill="none" xmlns="http://www.w3.org/2000/svg"><path fill-rule="evenodd" clip-rule="evenodd" d="M14.841 2.247a1 1 0 0 1 1.412.095l3.5 4a1 1 0 0 1 0 1.317l-3.5 4a1 1 0 1 1-1.506-1.318L16.797 8H5a1 1 0 0 1 0-2h11.796l-2.049-2.341a1 1 0 0 1 .095-1.412zm-5.682 10a1 1 0 0 0-1.412.095l-3.5 4a1 1 0 0 0 0 1.317l3.5 4a1 1 0 1 0 1.506-1.317L7.203 18H19a1 1 0 1 0 0-2H7.204l2.049-2.341a1 1 0 0 0-.095-1.412z" fill="#fff"/></svg>
